!!!!SEGMENT: Distler_Jahrkreis_03_Nun-komm-der-Heiden-Heiland.krn
!!!COM: Distler, Hugo
!!!CDT: 1908-1942
!!!LAR: Luther, Martin
!!!OPR@@DE: Der Jahrkreis
!!!OPR@EN: The Year Cycle
!!!OTL@@DE: Nun komm, der Heiden Heiland
!!!OTL@EN: Savior of the nations, come
!!!OPS: 5
!!!ONM: 3
**kern	**text	**kern	**text	**kern	**text
*part3	*part3	*part2	*part2	*part1	*part1
*staff3	*staff3	*staff2	*staff2	*staff1	*staff1
*Ibass	*	*Ialto	*	*Isoprn	*
*clefF4	*	*clefG2	*	*clefG2	*
*k[b-]	*	*k[b-]	*	*k[b-]	*
*MM80	*	*MM80	*	*MM80	*
*	*v:1	*	*v:1	*	*v:1
*M4/4	*	*M4/4	*	*M4/4	*
*met(c|)	*	*met(c|)	*	*met(c|)	*
2C	Nun	2e	Nun	2g	Nun
=1	=1	=1	=1	=1	=1
2C	komm,	([2e	komm,_	2g	komm,
2D	der	8eL]	.	2f	der
.	.	8d	.	.	.
.	.	8e	.	.	.
.	.	8fJ	.	.	.
=2	=2	=2	=2	=2	=2
2E-	Hei-	8g)	.	(2b-	Hei-
.	.	8f	der	.	.
.	.	4.d	Hei-	.	.
(4F	den	.	.	4a)	.
.	.	8c	den	.	.
4G)	.	([4d	Hei-	4g	den
=3	=3	=3	=3	=3	=3
2D	Hei-	8d]L	.	2a	Hei-
.	.	8eJ	.	.	.
.	.	4f#)	.	.	.
2G,	land,	(2g	land,_	2g,	land,
=4	=4	=4	=4	=4	=4
*M2/4	*	*M2/4	*	*M2/4	*
2E-	der	4g,)	.	2g	der
.	.	(4e-	der_	.	.
=5	=5	=5	=5	=5	=5
*M4/4	*	*M4/4	*	*M4/4	*
*met(c|)	*	*met(c|)	*	*met(c|)	*
2BB-	Jung-	4f	.	2b-	Jung-
.	.	4g)	.	.	.
2F	frau-	([2a-	Jung-	[2cc	frau-
!!LO:LB:g=original
=6	=6	=6	=6	=6	=6
2C	en	8a-]L	.	2cc]	.
.	.	8g	.	.	.
.	.	8f	.	.	.
.	.	8e-J)	.	.	.
(2G	Kind	4.d	frau-	2b-	en
.	.	8d	en	.	.
=7	=7	=7	=7	=7	=7
2F)	.	(4f	Kind	2cc	Kind
.	.	4g)	.	.	.
2F	er-	2a	er-	2dd	er-
=8	=8	=8	=8	=8	=8
1B-,	kannt.	(4.b-	kannt._	1b-,	kannt.
.	.	8a	.	.	.
.	.	4g	.	.	.
.	.	8fL	.	.	.
.	.	8e-J	.	.	.
=9	=9	=9	=9	=9	=9
2G	Des	2d),	.	2b-	Des
2F	sich	4a	Des	2cc	sich
.	.	4cc	sich	.	.
=10	=10	=10	=10	=10	=10
(4B-.	wun-	2.f	wun-	2dd	wun-
8A)	.	.	.	.	.
2G	der	.	.	4b-	der
.	.	4e	der	([4cc	al-
=11	=11	=11	=11	=11	=11
2A	al-	(8a	al-	4cc]	.
.	.	8g	.	.	.
.	.	4.f	.	2b-)	.
2B-	le	.	.	.	.
.	.	8e)	.	.	.
.	.	4d	le	4a	le
!!LO:LB:g=original
=12	=12	=12	=12	=12	=12
1c,	Welt,	1e,	Welt,	1g,	Welt,
=13	=13	=13	=13	=13	=13
1C	Gott	([2e-	Gott_	1g	Gott
.	.	8e-L]	.	.	.
.	.	8f	.	.	.
.	.	8g	.	.	.
.	.	8a-J)	.	.	.
=14	=14	=14	=14	=14	=14
2E-	solch	2b-	solch	2g	solch
2F	Ge-	4a-	Ge-	2f	Ge-
.	.	([4g	burt,_	.	.
=15	=15	=15	=15	=15	=15
2G	burt_	8gL]	.	2b-	burt
.	.	8fJ	.	.	.
.	.	4e-),	.	.	.
([2D	.	(4.f	solch	(4a	ihm
.	.	.	.	4g)	.
.	.	8e-)	.	.	.
=16	=16	=16	=16	=16	=16
*	*	*	*	*^	*
4D]	.	4d	Ge-	1a	1a	be-
4C)	.	4.e-	burt	.	.	.
2C	be-	.	.	.	.	.
.	.	8d	ihm	.	.	.
*	*	*^	*	*	*	*
.	.	4c	4c	be-	.	.	.
*	*	*v	*v	*	*v	*v	*
=17	=17	=17	=17	=17	=17
*^	*	*^	*	*^	*
2GG	2GN	stellt.	2g	2d	stellt.	2g	2b	stellt.
*v	*v	*	*v	*v	*	*v	*v	*
==	==	==	==	==	==
*-	*-	*-	*-	*-	*-
!!!RDF**kern: N = cue size
!!!YOR: Bärenreiter-Ausgabe 676
!!!YOY: 1933
!!!EFL: 3/52
!!!URL-github: https://github.com/LucasHofmann/distler/blob/main/Jahrkreis/Distler_Jahrkreis_03_Nun-komm-der-Heiden-Heiland.krn
!!!URL-pdf: https://imslp.eu/files/imglnks/euimg/7/7d/IMSLP834545-PMLP518834-5-jahrkreis-EA--original-paper-600dpi.pdf#page=10 First edition, Kassel: Bärenreiter, 1933. Plate BA 676.
!!!URL-imslp: https://imslp.org/wiki/Der_Jahrkreis,_Op.5_(Distler,_Hugo)#IMSLP834545
!!!URL-youtube: https://www.youtube.com/watch?v=5v60FGDGLDk Ensemble Singklang
!!!system-decoration: [(s1,s2,s3)]
!!!ENC: Lucas Hofmann
!!!END: 2023/10/12
!!!title: @{OPR@@DE}, Op. @{OPS}, Nr. @{ONM}. <i>@{OTL@@DE}</i>
